X: 37
T: 37. Jesu, der du meine Seele
N: Derived from chor037.krn
C: Johann Sebastian Bach
%%abc-version 2.0
%%abcx-abcm2ps-target-version 5.9.1 (29 Sep 2008)
%%abc-creator hum2abc beta
%%abcx-conversion-date 2019/03/11 17:28:17
%%abc-edited-by Craig Stuart Sapp
%%humdrum-veritas 2534950192
%%humdrum-veritas-data 3044516970
%%
%%barnumbers 0
L: 1/8
M: C
%%staves [1 2 3 4]
V: 1 clef=treble
V: 2 clef=treble
V: 3 clef=treble-8
V: 4 clef=bass
K: C
[V:1] e2e2B2c2 | 
[V:2] ABc2B2A^G | 
[V:3] cBA2e2e2 | 
[V:4] A,,2A,2^G,2^F,E, | 
[V:1] d2cBB2!fermata!A2 | 
[V:2] ABA2-A^G!fermata!E2 | 
[V:3] dB cde2!fermata!c2 | 
[V:4] ^F,^G,A,2E,2!fermata!A,,2 | 
[V:1] c2c2B2A2 | 
[V:2] E2A=G FE2D | 
[V:3] cBA2-A^GA2 | 
[V:4] A,=G, =F,E, D,E,F,2 | 
[V:1] ^G2A2!fermata!B4 :|]  
[V:2] DE/F/ E^F!fermata!^G4 :|]  
[V:3] Bc/d/ ce/^d/!fermata!e4 :|]  
[V:4] B,,2C,A,,!fermata!E,4 :|]  
[V:1] B2c2dcB2 | 
[V:2] ^G2A2A2=G2 | 
[V:3] e2e2d2d2 | 
[V:4] E,2A,=G, ^F,D, G,F, | 
[V:1] c2BAA2!fermata!G2 | 
[V:2] G^FG2F2!fermata!D2 | 
[V:3] cde2dc!fermata!B2 | 
[V:4] E,2D,C,D,2!fermata!G,,2 | 
[V:1] c2d2edc2 | 
[V:2] C2G2G2AG | 
[V:3] e2B2cBA2 | 
[V:4] A,2G,F,E,2F,E, | 
[V:1] f2e2d2!fermata!c2 | 
[V:2] ABc2B2!fermata!G2 | 
[V:3] d2G2gf!fermata!e2 | 
[V:4] D,2E,F,G,2!fermata!C,2 | 
[V:1] B2c2d2e2 | 
[V:2] G2FED2GA | 
[V:3] d2c2gfe2 | 
[V:4] G,2A,2B,2CB, | 
[V:1] d2c2!fermata!B4 | 
[V:2] B2A2!fermata!^G4 | 
[V:3] f2e2!fermata!e4 | 
[V:4] A,^G,A,2!fermata!E,4 | 
[V:1] A2B2cBd2 | 
[V:2] A=G FE EF ED | 
[V:3] e2d2cd ^GA | 
[V:4] C,B,, A,,^G,, A,,D, E,F, | 
[V:1] c2BA!fermata!A4 |]  
[V:2] E2-E3/D/!fermata!^C4 |]  
[V:3] A2^G2!fermata!E4 |]  
[V:4] E,D,E,2!fermata!A,,4 |]  



